X:205
T:Egan's Polka
Z:Jack Campin, http://www.campin.me.uk/
F:Jack Campin's Nine-Note Tunebook
% last edit 03-02-2013
M:2/4
L:1/8
Q:1/4=124
K:G
BD ED |BD ED|G2 A>B|AG ED |\
BD ED |BD ED|G2 A>B|AG G2:|
Bd B>d|AG ED|G2 A>B|AG ED |\
Bd B>d|AG ED|G2 A>B|AG G2:|

